.local/share/icons/Gruvbox-Plus-Dark/mimetypes/scalable/application-vnd.wolfram.mathematica.package.svg

<svg width="256" height="256" fill="none" version="1.1" viewBox="0 0 256 256" xmlns="http://www.w3.org/2000/svg">
  <path d="m55.08 15h100.5l60.4 60.15 2e-3 148.9c0 8.911-7.262 16.13-16.17 16.13h-144.8c-8.91 0-16.08-7.174-16.08-16.08v-193c0-8.91 7.173-16.08 16.08-16.08h1e-4z" fill="#ebdbb2"/>
  <path d="m155.6 20.32h-100.5c-5.973 0-10.76 4.792-10.76 10.76v193c0 5.973 4.792 10.76 10.76 10.76h144.8c5.992 0 10.85-4.856 10.85-10.81v-148.9l-55.08-54.83zm0-5.319h-100.5c-8.91 0-16.08 7.173-16.08 16.08v193c0 8.91 7.173 16.08 16.08 16.08h144.8c8.911 0 16.17-7.218 16.17-16.13l-2e-3 -148.9-60.4-60.15z" clip-rule="evenodd" fill="url(#paint0_linear)" fill-rule="evenodd"/>
  <path d="m128 68c-2.016 4e-3 -4.03 0.1096-6.035 0.3164-1.907 0.1918-3.786 0.4767-5.637 0.8437-0.082 0.0116-0.164 0.0236-0.246 0.0356-1.739 0.3525-3.439 0.8125-5.121 1.312-0.239 0.061-0.477 0.1235-0.715 0.1875-1.897 0.5896-3.755 1.259-5.566 2.027-1.79 0.7582-3.542 1.603-5.25 2.531-3.388 1.844-6.59 4.01-9.562 6.469-1.483 1.224-2.907 2.518-4.266 3.879-1.296 1.298-2.532 2.655-3.703 4.066-0.0692 0.0831-0.1422 0.1627-0.211 0.2461-0.9475 1.173-1.85 2.38-2.707 3.621-0.3042 0.4313-0.621 0.8496-0.914 1.289-0.6512 0.9969-1.273 2.013-1.863 3.047-0.416 0.7119-0.8434 1.414-1.23 2.144-0.4816 0.929-0.9388 1.871-1.371 2.824-0.4015 0.864-0.7991 1.728-1.16 2.613-0.3582 0.906-0.6942 1.821-1.008 2.743-0.3413 0.97-0.6808 1.937-0.9727 2.929-0.2463 0.87-0.4729 1.745-0.6797 2.625-0.2562 1.045-0.5143 2.088-0.7148 3.153-0.1782 1.007-0.3306 2.019-0.4571 3.035-0.1276 0.942-0.2566 1.881-0.3398 2.836-0.1658 1.737-0.2557 3.481-0.2695 5.226 4e-3 2.016 0.1095 4.03 0.3163 6.035 1.032 10.25 4.665 19.75 10.22 27.83 0.051 0.074 0.101 0.149 0.1523 0.223 0.4299 0.617 0.8714 1.227 1.324 1.828 0.0032-0.019 0.0086-0.039 0.012-0.059 10.96 14.62 28.36 24.14 47.98 24.14 11.27 0 21.79-3.181 30.81-8.613l0.012 0.012 0.363-0.246c1.431-0.877 2.823-1.8 4.172-2.789 0.311-0.228 0.619-0.458 0.925-0.692 1.185-0.904 2.332-1.848 3.446-2.836 0.451-0.403 0.897-0.813 1.336-1.23 0.927-0.874 1.824-1.777 2.695-2.707 0.518-0.549 1.026-1.108 1.523-1.676 0.818-0.943 1.597-1.914 2.356-2.906 0.415-0.536 0.822-1.079 1.219-1.629 0.797-1.119 1.541-2.272 2.261-3.446 0.3-0.476 0.593-0.956 0.879-1.441 0.714-1.239 1.367-2.516 1.993-3.809 0.245-0.492 0.483-0.988 0.714-1.488 0.561-1.245 1.059-2.52 1.536-3.808 0.232-0.61 0.455-1.223 0.667-1.84 0.414-1.243 0.769-2.508 1.102-3.785 0.175-0.642 0.339-1.287 0.492-1.934 0.271-1.207 0.482-2.435 0.68-3.668 0.137-0.81 0.259-1.623 0.363-2.438 0.124-1.056 0.189-2.126 0.258-3.199 0.107-1.275 0.173-2.553 0.199-3.832 0-2.023-0.108-4.016-0.305-5.988l-0.012-0.047c-0.192-1.907-0.476-3.786-0.843-5.637-0.017-0.08-0.019-0.165-0.036-0.246-0.353-1.739-0.813-3.439-1.313-5.121-0.067-0.227-0.105-0.465-0.175-0.691l-0.024-0.082c-0.585-1.878-1.255-3.714-2.016-5.508-0.758-1.79-1.602-3.542-2.531-5.25-1.844-3.388-4.01-6.59-6.469-9.562-1.223-1.483-2.518-2.907-3.878-4.266-1.299-1.296-2.655-2.532-4.067-3.703-0.066-0.0588-0.133-0.1173-0.199-0.1758-0.015-0.0124-0.032-0.0227-0.047-0.0356-1.172-0.9475-2.38-1.85-3.621-2.707-0.431-0.3042-0.849-0.621-1.289-0.9141-0.997-0.6511-2.013-1.272-3.047-1.863-0.711-0.416-1.414-0.8433-2.144-1.23-0.929-0.4815-1.871-0.9387-2.824-1.371-0.864-0.4015-1.728-0.7991-2.614-1.16-0.905-0.3581-1.819-0.694-2.741-1.008-0.971-0.3412-1.938-0.6808-2.93-0.9727-0.87-0.2463-1.745-0.4729-2.625-0.6797-1.045-0.2562-2.087-0.5143-3.152-0.7148-1.008-0.1782-2.02-0.3306-3.035-0.457-0.942-0.1276-1.881-0.2567-2.836-0.3399-1.738-0.1658-3.482-0.2557-5.227-0.2695zm-9.117 8.66 8.105 19.03 13.87-11.78v32.91l32.14 26.18-9.879 6.569-27.46-0.281 15.38 20.85c-6.834 3.733-14.68 5.86-23.04 5.86-20 0-37.07-12.13-44.3-29.46 3.784-14.62 9.436-28.74 17.53-36.61 3.454-12.71 10.19-23.23 17.65-33.27v-1e-4zm9.546 45.34 5e-3 5.109 11.57 0.891c-1.488-3.597-4.724-5.254-11.57-6z" fill="url(#paint1_linear)"/>
  <path d="m155.6 17v44.23c0 8.91 7.259 15.93 16.17 15.93l44.23-0.0112v-2l-60.4-58.15z" fill="#282828" opacity=".25"/>
  <path d="m155.6 15v44.23c0 8.91 7.259 15.93 16.17 15.93l44.23-0.0112-60.4-60.15z" fill="url(#paint2_linear)"/>
  <defs>
    <linearGradient id="paint0_linear" x1="39" x2="39" y1="15" y2="240.2" gradientUnits="userSpaceOnUse">
      <stop stop-color="#fb4934" offset="1e-7"/>
      <stop stop-color="#cc241d" offset="1"/>
    </linearGradient>
    <linearGradient id="paint1_linear" x1="68" x2="68" y1="68" y2="188" gradientUnits="userSpaceOnUse">
      <stop stop-color="#fb4934" offset="1e-7"/>
      <stop stop-color="#cc241d" offset="1"/>
    </linearGradient>
    <linearGradient id="paint2_linear" x1="155.6" x2="155.6" y1="15" y2="75.16" gradientUnits="userSpaceOnUse">
      <stop stop-color="#fb4934" offset="1e-7"/>
      <stop stop-color="#cc241d" offset="1"/>
    </linearGradient>
  </defs>
</svg>

<svg width="256" height="256" viewBox="0 0 256 256" fill="none" xmlns="http://www.w3.org/2000/svg">
<g opacity="0.4" filter="url(#filter0_f)">
<path d="M55.0839 15.5636H155.608L216.009 75.7129L216.011 224.609C216.011 233.52 208.749 240.737 199.838 240.737H55.0838C46.1734 240.737 39 233.564 39 224.654V31.6474C39 22.737 46.1734 15.5636 55.0838 15.5636H55.0839Z" fill="#282828"/>
</g>
<path d="M55.0839 15H155.608L216.009 75.1493L216.011 224.045C216.011 232.956 208.749 240.174 199.838 240.174H55.0838C46.1734 240.174 39 233 39 224.09V31.0838C39 22.1734 46.1734 15 55.0838 15H55.0839Z" fill="#ebdbb2"/>
<path fill-rule="evenodd" clip-rule="evenodd" d="M155.608 20.3191H55.0839C49.1112 20.3191 44.3191 25.1111 44.3191 31.0838V224.09C44.3191 230.063 49.1111 234.855 55.0838 234.855H199.838C205.83 234.855 210.692 229.999 210.692 224.046V75.1493L155.608 20.3191ZM155.608 15H55.0839C46.1735 15 39 22.1734 39 31.0838V224.09C39 233 46.1734 240.174 55.0838 240.174H199.838C208.749 240.174 216.011 232.956 216.011 224.045L216.009 75.1493L155.608 15Z" fill="url(#paint0_linear)"/>
<path d="M128 68C125.984 68.004 123.97 68.1096 121.965 68.3164C120.058 68.5082 118.179 68.7931 116.328 69.1601C116.246 69.1717 116.164 69.1837 116.082 69.1957C114.343 69.5482 112.643 70.0082 110.961 70.5082C110.722 70.5692 110.484 70.6317 110.246 70.6957C108.349 71.2853 106.491 71.9549 104.68 72.723C102.89 73.4812 101.138 74.326 99.4297 75.2543C96.0417 77.0981 92.8394 79.2644 89.8672 81.723C88.384 82.9469 86.9605 84.2413 85.6016 85.6019C84.3057 86.9001 83.0701 88.257 81.8985 89.6683C81.8293 89.7514 81.7563 89.831 81.6875 89.9144C80.74 91.087 79.837 92.2949 78.9805 93.5355C78.6763 93.9668 78.3595 94.3851 78.0665 94.8246C77.4153 95.8215 76.7939 96.8376 76.2032 97.8715C75.7872 98.5834 75.3598 99.2859 74.9727 100.016C74.4911 100.945 74.0339 101.887 73.6016 102.84C73.2001 103.704 72.8025 104.568 72.4415 105.453C72.0833 106.359 71.7473 107.274 71.4337 108.196C71.0924 109.166 70.7529 110.133 70.461 111.125C70.2147 111.995 69.9881 112.87 69.7813 113.75C69.5251 114.795 69.267 115.838 69.0665 116.903C68.8883 117.91 68.7359 118.922 68.6094 119.938C68.4818 120.88 68.3528 121.819 68.2696 122.774C68.1038 124.511 68.0139 126.255 68.0001 128C68.0041 130.016 68.1096 132.03 68.3164 134.035C69.348 144.289 72.981 153.784 78.5352 161.867C78.5862 161.941 78.6362 162.016 78.6875 162.09C79.1174 162.707 79.5589 163.317 80.0117 163.918C80.0149 163.899 80.0203 163.879 80.0237 163.859C90.9803 178.475 108.383 188 128 188C139.268 188 149.788 184.819 158.809 179.387L158.821 179.399C158.942 179.317 159.063 179.235 159.184 179.153C160.615 178.276 162.007 177.353 163.356 176.364C163.667 176.136 163.975 175.906 164.281 175.672C165.466 174.768 166.613 173.824 167.727 172.836C168.178 172.433 168.624 172.023 169.063 171.606C169.99 170.732 170.887 169.829 171.758 168.899C172.276 168.35 172.784 167.791 173.281 167.223C174.099 166.28 174.878 165.309 175.637 164.317C176.052 163.781 176.459 163.238 176.856 162.688C177.653 161.569 178.397 160.416 179.117 159.242C179.417 158.766 179.71 158.286 179.996 157.801C180.71 156.562 181.363 155.285 181.989 153.992C182.234 153.5 182.472 153.004 182.703 152.504C183.264 151.259 183.762 149.984 184.239 148.696C184.471 148.086 184.694 147.473 184.906 146.856C185.32 145.613 185.675 144.348 186.008 143.071C186.183 142.429 186.347 141.784 186.5 141.137C186.771 139.93 186.982 138.702 187.18 137.469C187.317 136.659 187.439 135.846 187.543 135.031C187.667 133.975 187.732 132.905 187.801 131.832C187.908 130.557 187.974 129.279 188 128C188 125.977 187.892 123.984 187.695 122.012L187.683 121.965C187.491 120.058 187.207 118.179 186.84 116.328C186.823 116.248 186.821 116.163 186.804 116.082C186.451 114.343 185.991 112.643 185.491 110.961C185.424 110.734 185.386 110.496 185.316 110.27L185.292 110.188C184.707 108.31 184.037 106.474 183.276 104.68C182.518 102.89 181.674 101.138 180.745 99.4298C178.901 96.0418 176.735 92.8395 174.276 89.8673C173.053 88.3841 171.758 86.9606 170.398 85.6017C169.099 84.3058 167.743 83.0702 166.331 81.8986C166.265 81.8398 166.198 81.7813 166.132 81.7228C166.117 81.7104 166.1 81.7001 166.085 81.6872C164.913 80.7397 163.705 79.8367 162.464 78.9802C162.033 78.676 161.615 78.3592 161.175 78.0661C160.178 77.415 159.162 76.7936 158.128 76.2029C157.417 75.7869 156.714 75.3596 155.984 74.9724C155.055 74.4909 154.113 74.0337 153.16 73.6013C152.296 73.1998 151.432 72.8022 150.546 72.4412C149.641 72.0831 148.727 71.7472 147.805 71.4336C146.834 71.0924 145.867 70.7528 144.875 70.4609C144.005 70.2146 143.13 69.988 142.25 69.7812C141.205 69.525 140.163 69.2669 139.098 69.0664C138.09 68.8882 137.078 68.7358 136.063 68.6094C135.121 68.4818 134.182 68.3527 133.227 68.2695C131.489 68.1037 129.745 68.0138 128 68ZM118.883 76.6601L126.988 95.6914L140.857 83.914V116.82L173 143L163.121 149.569L135.664 149.288L151.039 170.14C144.205 173.873 136.361 176 128 176C107.999 176 90.9328 163.868 83.7032 146.539C87.4873 131.919 93.1392 117.804 101.234 109.93C104.688 97.2205 111.427 86.701 118.883 76.6602V76.6601ZM128.429 122L128.434 127.109L140 128C138.512 124.403 135.276 122.746 128.429 122H128.429Z" fill="url(#paint1_linear)"/>
<path opacity="0.25" d="M155.608 17V61.2306C155.608 70.141 162.867 77.1605 171.777 77.1605L216.009 77.1493V75.1493L155.608 17Z" fill="#282828"/>
<path d="M155.608 15V59.2306C155.608 68.141 162.867 75.1605 171.777 75.1605L216.009 75.1493L155.608 15Z" fill="url(#paint2_linear)"/>
<defs>
<filter id="filter0_f" x="23.8778" y="0.441412" width="207.255" height="255.418" filterUnits="userSpaceOnUse" color-interpolation-filters="sRGB">
<feFlood flood-opacity="0" result="BackgroundImageFix"/>
<feBlend mode="normal" in="SourceGraphic" in2="BackgroundImageFix" result="shape"/>
<feGaussianBlur stdDeviation="7.5611" result="effect1_foregroundBlur"/>
</filter>
<linearGradient id="paint0_linear" x1="39" y1="15" x2="39" y2="240.174" gradientUnits="userSpaceOnUse">
<stop offset="1e-07" stop-color="#fb4934"/>
<stop offset="1" stop-color="#cc241d"/>
</linearGradient>
<linearGradient id="paint1_linear" x1="68.0001" y1="68" x2="68.0001" y2="188" gradientUnits="userSpaceOnUse">
<stop offset="1e-07" stop-color="#fb4934"/>
<stop offset="1" stop-color="#cc241d"/>
</linearGradient>
<linearGradient id="paint2_linear" x1="155.608" y1="15" x2="155.608" y2="75.1605" gradientUnits="userSpaceOnUse">
<stop offset="1e-07" stop-color="#fb4934"/>
<stop offset="1" stop-color="#cc241d"/>
</linearGradient>
</defs>
</svg>
